images/icons/generic-map.svg

<svg fill="none" height="24" viewBox="0 0 24 24" width="24" xmlns="http://www.w3.org/2000/svg"><path d="m3.01632 23.8848c-.27652.1152-.55881.144-.84685.0864-.28805-.0576-.53577-.1901-.74316-.3975-.2074-.2074-.3399-.4551-.39751-.7432-.057605-.288-.0288-.5703.08642-.8468l9.40178-21.154127c.2535-.553049.6798-.829573 1.2789-.829573.5992 0 1.0255.276524 1.279.829573l9.4018 21.154127c.1152.2765.144.5588.0864.8468-.0576.2881-.1901.5358-.3975.7432s-.4551.3399-.7432.3975c-.288.0576-.5703.0288-.8468-.0864l-8.7797-3.7677z" fill="#fff"/></svg>

<svg width="24" height="24" viewBox="0 0 24 24" fill="none" xmlns="http://www.w3.org/2000/svg">
<path d="M3.01632 23.8848C2.7398 24 2.45751 24.0288 2.16947 23.9712C1.88142 23.9136 1.6337 23.7811 1.42631 23.5737C1.21891 23.3663 1.08641 23.1186 1.0288 22.8305C0.971195 22.5425 1 22.2602 1.11522 21.9837L10.517 0.829573C10.7705 0.276524 11.1968 0 11.7959 0C12.3951 0 12.8214 0.276524 13.0749 0.829573L22.4767 21.9837C22.5919 22.2602 22.6207 22.5425 22.5631 22.8305C22.5055 23.1186 22.373 23.3663 22.1656 23.5737C21.9582 23.7811 21.7105 23.9136 21.4224 23.9712C21.1344 24.0288 20.8521 24 20.5756 23.8848L11.7959 20.1171L3.01632 23.8848Z" fill="white"/>
</svg>
